X:48
T:Neil Gow's Strathspey
C:D. Macintyre
S:Petrie's Third Collection of Strathspey Reels and Country Dances &c.
Z:Steve Wyrick , 7/31/05
N:Petrie's Third Collection, page 19
L:1/8
M:C
R:Strathspey
K:A
f|e<ca>e fBBf|e<ca>e f2fg|a/g/f/e/ ae fBBg|a>fe<c A2A:|B
A<Ac<A B<FFef<a|e<ac<A BFFg|a>fe<c A2Ac|
A<Ac<A B<FFef<a|e/f/g/a/ f/e/d/c/ B<FF<g|(a/g/a/f/) (e/d/c/B/) A2A|]
